!!!COM: Haydn, Franz Joseph
!!!OTL: String Quartet in B-flat Major
!!!OPS: Opus 50
!!!ONM: No. 1
!!!OMD: Finale: Vivace
!!!OMV: 4
!!!SCT: H III:44
!!!SCA: Thematisch-bibliographisches Werkevererzeichnis (A. van Hoboken)
!!!YOR: Richault Edition, volume 6
!!!ENC: Frances Bennion
!!!CDT: 1732/3/31/-1809/5/31/
!!!CNT: Oesterreich
!!!YEC: Copyright (c) 1994, 2000 Center for Computer Assisted Research in the Humanities
!!!YEM: Rights to all derivative editions reserved.
!!!YEM: Refer to licensing agreement for further details.
!!!YEN: United States of America
**kern	**kern	**kern	**kern
*k[b-e-]	*k[b-e-]	*k[b-e-]	*k[b-e-]
*B-:	*B-:	*B-:	*B-:
*clefF4	*clefC3	*clefF	*clefF
*M2/4	*M2/4	*M2/4	*M2/4
4BB-	8r	8r	4ff
.	8D	8B-	.
4r	8B-	8d	8dd
.	8d	8f	8b-
=2	=2	=2	=2
4BB-	8r	8r	8f
.	8D	8B-	8b-
4r	8B-	8d	8b-
.	8d	8f	8b-
=3	=3	=3	=3
4F	8r	8r	8cc
.	8A	8c	8cc
4r	8c	8e-	8cc
.	8e-	8a	8cc
=4	=4	=4	=4
4BB-	8r	8r	16dd
.	.	.	16ee-
.	8B-	8d	16dd
.	.	.	16cc
4r	8d	8f	16b-
.	.	.	16cc
.	8B-	8d	16dd
.	.	.	16ee-
=5	=5	=5	=5
4BB-	8r	8r	4ff
.	8D	8B-	.
4r	8B-	8d	8dd
.	8d	8f	8b-
=6	=6	=6	=6
4B-	8r	8r	8f
.	8D	8B-	8b-
4r	8B-	8d	8b-
.	8d	8f	8b-
=7	=7	=7	=7
4F	8r	8r	8cc
.	8A	8c	8cc
4r	8c	8e-	16cc
.	.	.	16ee-
.	8e-	8a	16dd
.	.	.	16cc
=8	=8	=8	=8
4BB-	4d	8b-	4b-
.	.	8f	.
4r	4r	8b-	4r
.	.	8dd	.
=9	=9	=9	=9
8r	8r	4ff	2r
8BB-	8D	.	.
8D	8F	8dd	.
8F	8B-	8b-	.
=10	=10	=10	=10
4B-	2d	8f	8r
.	.	8b-	8bb-
4G	.	8b-	8bb-
.	.	8b-	8bb-
=11	=11	=11	=11
2F	2e-	8cc	16bb-
.	.	.	16ccc
.	.	8cc	16bb-
.	.	.	16ccc
.	.	8cc	8aa
.	.	8cc	8ff
=12	=12	=12	=12
4BB-	4d	16dd	4ddd
.	.	16ee-	.
.	.	16dd	.
.	.	16cc	.
4r	4r	16b-	4r
.	.	16cc	.
.	.	16dd	.
.	.	16ee-	.
=13	=13	=13	=13
8r	8r	4ff	2r
8BB-	8D	.	.
8D	8F	8dd	.
8F	8B-	8b-	.
=14	=14	=14	=14
4B-	2d	8f	8r
.	.	8b-	8bb-
4G	.	8b-	8bb-
.	.	8b-	8bb-
=15	=15	=15	=15
2F	2e-	8cc	16bb-
.	.	.	16ccc
.	.	8cc	16bb-
.	.	.	16ccc
.	.	16cc	8aa
.	.	16ee-	.
.	.	16dd	8ff
.	.	16cc	.
=16	=16	=16	=16
4BB-	4d	4b-	4bb-
4r	4r	4r	4r
=17	=17	=17	=17
2r	2f	2e- 2a	8cc
.	.	.	8cc
.	.	.	16cc
.	.	.	16ee-
.	.	.	16dd
.	.	.	16cc
=18	=18	=18	=18
4f	4d	4d 4b-	4b-
8d	4r	4r	4r
8B-	.	.	.
=19	=19	=19	=19
2G	2r	16b-	8ee
.	.	16cc	.
.	.	16b-	8ee
.	.	16cc	.
.	.	8b-	16ee
.	.	.	16gg
.	.	8b-	16ff
.	.	.	16ee
=20	=20	=20	=20
4F	4cc	4a	4ff
4r	8a	4r	4r
.	8f	.	.
=21	=21	=21	=21
2r	8e	2r	8gg
.	8c	.	8gg
.	8e	.	16gg
.	.	.	16bb-
.	8c	.	16aa
.	.	.	16gg
=22	=22	=22	=22
2r	8f	4cc	4aa
.	8c	.	.
.	8f	8a	4r
.	8c	8f	.
=23	=23	=23	=23
2r	8d	8ff	8bb
.	8d	8dd	8bb
.	8d	8b	16bb
.	.	.	16ddd
.	8d	8f	16ccc
.	.	.	16bb
=24	=24	=24	=24
4C	4c	4e	4ccc
8GG	4r	4r	4r
8EE	.	.	.
=25	=25	=25	=25
2DD-	4.F	4ff	4bb-
.	.	8dd-	8ccc
.	16G	8b-	8ddd-
.	16A-	.	.
=26	=26	=26	=26
2CC	2B-	2g	4ff
.	.	.	4ee
=27	=27	=27	=27
2DD-	4.F	4ff	8bb-
.	.	.	8bb-
.	.	8dd-	8ccc
.	16G	8b-	8ddd-
.	16A-	.	.
=28	=28	=28	=28
2CC	2B-	2g	4ff
.	.	.	4ee
=29	=29	=29	=29
2DD-	4.F	8ff	16bb-
.	.	.	16ccc
.	.	8ff	16ddd-
.	.	.	16ccc
.	.	8dd-	16bb-
.	.	.	16aa-
.	16G	8b-	16gg
.	16A-	.	16ff
=30	=30	=30	=30
2CC	[2B-	[2g	2ff
=31	=31	=31	=31
2CC	2B-]	2g]	16ee
.	.	.	16ff
.	.	.	16ee
.	.	.	16ff
.	.	.	16gg
.	.	.	16aa
.	.	.	16gg
.	.	.	16aa
=32	=32	=32	=32
8C	8G	8B- 8e	8bb-
4C	4G	4B- 4e	16bb-
.	.	.	16aa
.	.	.	8gg
[8C	[8G	8e 8B-	16gg
.	.	.	16ff
=33	=33	=33	=33
8C]	8G]	8B- 8e	8ee
4C	4G	4e 4B-	16gg
.	.	.	16ff
.	.	.	16ee
.	.	.	16dd
8C	8G	8B- 8e	16cc
.	.	.	16b-
=34	=34	=34	=34
8F	4A	4cc	4a
8AA	.	.	.
8F	8r	8a	4r
8A	8c	8f	.
=35	=35	=35	=35
8r	8c	4d	4dd
8BB-	8B-	.	.
8G	8r	4r	8b-
8B-	8d	.	8g
=36	=36	=36	=36
8r	8d	4ee	4e
8C	8c	.	.
8A	8r	8cc	4r
8c	8e	8a	.
=37	=37	=37	=37
8r	8e	4f	4ff
8D	8d	.	.
8B-	8r	4r	8dd
8d	8f	.	8b-
=38	=38	=38	=38
8r	8f	4g	4gg
8E	8e	.	.
8c	8r	8b-	8ee
8e	8g	8cc	8b-
=39	=39	=39	=39
4f	4c	4a	16a
.	.	.	16cc
.	.	.	16b
.	.	.	16cc
4r	4r	4r	16ff
.	.	.	16cc
.	.	.	16b
.	.	.	16cc
=40	=40	=40	=40
4F	4A 4f	16f	16cc
.	.	16a	16ff
.	.	16g#	16ee
.	.	16a	16ff
4r	4r	16cc	16aa
.	.	16a	16ff
.	.	16g#	16ee
.	.	16a	16ff
=41	=41	=41	=41
4F	4f 4A	16a	16ff
.	.	16ff	16aa
.	.	16ee	16gg#
.	.	16ff	16aa
4r	4r	16aa	16ccc
.	.	16ff	16aa
.	.	16ee	16gg#
.	.	16ff	16aa
=42	=42	=42	=42
4F	4f 4A	16aa	16ccc
.	.	16ff	16aa
.	.	16ee	16gg#
.	.	16ff	16aa
4r	4r	16aa	16ccc
.	.	16ff	16aa
.	.	16ee	16gg#
.	.	16ff	16aa
=43	=43	=43	=43
4F	4f 4A	4aa	4ccc
4r	4r	8r	8r
.	.	16ff	16aa
.	.	16gg	16bb-
=44	=44	=44	=44
2r	2r	8aa	8ccc
.	.	8ff	8aa
.	.	8aa	8ccc
.	.	8ff	8aa
=45	=45	=45	=45
2r	2r	4aa	4ccc
.	.	4r	4r
=46	=46	=46	=46
16d	2F#	4a	8r
16a	.	.	.
16b-	.	.	8ddd
16a	.	.	.
16dd	.	8f#	8ddd
16a	.	.	.
16b-	.	8d	8ddd
16a	.	.	.
=47	=47	=47	=47
16d	2G	4b-	4ddd
16b-	.	.	.
16cc	.	.	.
16b-	.	.	.
16dd	.	4r	8bb-
16b-	.	.	.
16cc	.	.	8gg
16b-	.	.	.
=48	=48	=48	=48
16c	2E	4g	8r
16g	.	.	.
16a	.	.	8ccc
16g	.	.	.
16cc	.	8e	8ccc
16g	.	.	.
16a	.	8c	8ccc
16g	.	.	.
=49	=49	=49	=49
16c	2F	4a	4ccc
16a	.	.	.
16b-	.	.	.
16a	.	.	.
16cc	.	4r	8aa
16a	.	.	.
16b-	.	.	8ff
16a	.	.	.
=50	=50	=50	=50
2d	16f	4ff	8r
.	16b	.	.
.	16a	.	8fff
.	16b	.	.
.	16dd	8dd	8fff
.	16b	.	.
.	16a	8b	8fff
.	16b	.	.
=51	=51	=51	=51
2D	16ff	4f	8fff
.	16b	.	.
.	16a	.	8ddd
.	16b	.	.
.	16dd	4r	8bb
.	16b	.	.
.	16a	.	8ff
.	16b	.	.
=52	=52	=52	=52
2C	16cc	2g	16ee
.	16e	.	16cc
.	16d	.	16b
.	16e	.	16cc
.	16c	.	16gg
.	16e	.	16cc
.	16d	.	16b
.	16e	.	16cc
=53	=53	=53	=53
2C	16g	2e	16bb-
.	16f	.	16aa
.	16e	.	16gg
.	16d	.	16ff
.	16c	.	16ee
.	16B-	.	16dd
.	16A	.	16cc
.	16G	.	16b-
=54	=54	=54	=54
4F	4F	8f	8a
.	.	8a	8cc
4r	4r	8b-	8dd
.	.	8g	8ee
=55	=55	=55	=55
2r	2r	8a	8ff
.	.	8e	8gg
.	.	8f	8aa
.	.	8g	8bb-
=56	=56	=56	=56
2r	2r	8a	8ccc
.	.	8f	8aa
.	.	8g	8bb-
.	.	8a	8ccc
=57	=57	=57	=57
2r	2r	8b-	8ddd
.	.	8cc	8eee
.	.	8dd	8fff
.	.	8ee	8ggg
=58	=58	=58	=58
2r	2r	4ff	2aaa
.	.	4r	.
=59	=59	=59	=59
2BB	2B	2B	2B
=60	=60	=60	=60
8C	8c	8c	8c
8C	8f	8a	8f
8C	8f	8a	8a
8C	8f	8a	8cc
=61	=61	=61	=61
8C	8f	8a	8ff
8C	8f	8a	8aa
8C	8f	8a	8ccc
8C	8f	8a	8fff
=62	=62	=62	=62
8C	[2e	4b-	[2gg
8C	.	.	.
8C	.	8g	.
8C	.	8c	.
=63	=63	=63	=63
8C	2e]	4b-	2gg]
8C	.	.	.
8C	.	8g	.
8C	.	8c	.
=64	=64	=64	=64
8D-	2f	2b-	4ff
8D-	.	.	.
8D-	.	.	8dd-
8D-	.	.	8b-
=65	=65	=65	=65
8C	2e-	2a	4gg-
8C	.	.	.
8C	.	.	8ee-
8C	.	.	8cc
=66	=66	=66	=66
8D-	2d-	2b-	4ff
8D-	.	.	.
8D-	.	.	8dd-
8D-	.	.	8b-
=67	=67	=67	=67
8BB-	2G	2ee	4ddd-
8BB-	.	.	.
8BB-	.	.	8bb-
8BB-	.	.	8gg
=68	=68	=68	=68
4AA	4A	8ff	8ccc
.	.	8r	16aa
.	.	.	16ff
4BB-	4B-	8dd	8bb-
.	.	8r	16gg
.	.	.	16dd
=69	=69	=69	=69
4C	4c	8cc	8aa
.	.	8r	16ff
.	.	.	16cc
4C	4c	8e	8gg
.	.	8r	16ee
.	.	.	16b-
=70	=70	=70	=70
4F	4cc	8f	4a
.	.	16c	.
.	.	16A	.
4r	8a	8f	4r
.	8f	16c	.
.	.	16A	.
=71	=71	=71	=71
4F	4e	8e	4bb-
.	.	16c	.
.	.	16B-	.
4r	4r	8e	8gg
.	.	16c	8ee
.	.	16B-	.
=72	=72	=72	=72
4FF	4c	8f	4ff
.	.	16c	.
.	.	16A	.
4r	8A	8f	4r
.	8F	16c	.
.	.	16A	.
=73	=73	=73	=73
4FF	4E	8e	4b-
.	.	16c	.
.	.	16B-	.
4r	4r	8e	8g
.	.	16c	8e
.	.	16B-	.
=74	=74	=74	=74
4FF	4F	4A	4f
4FF	4F	4cc 4a	4ff 4a
=75	=75	=75	=75
4FF	4F	4f 4a	4ff 4a
4r	4r	4r	4r
=76	=76	=76	=76
2r	2a-	2cc	4aa-
.	.	.	8ff
.	.	.	8dd
=77	=77	=77	=77
4d	[2f	2a-	4b
8B	.	.	4r
8A-	.	.	.
=78	=78	=78	=78
4G	2f]	2b	4ddd
4r	.	.	8bb
.	.	.	8gg
=79	=79	=79	=79
4c	4e-	4cc	4ee-
8G	8c	4r	4r
8E-	8G	.	.
=80	=80	=80	=80
4C	4E-	4ccc	4eee-
4r	4r	8gg	8ccc
.	.	8ee-	8gg
=81	=81	=81	=81
2r	4a	4cc	4ee-
.	8f#	4r	4r
.	8e-	.	.
=82	=82	=82	=82
4d	4d	4a	4ff#
8A	4r	8cc	8aa
8F#	.	8a	8ccc
=83	=83	=83	=83
4G	4G	4b-	4bb-
4r	8B-	4r	4r
.	8d	.	.
=84	=84	=84	=84
2r	4g	4g	4b-
.	4r	8b-	8dd
.	.	8dd	8gg
=85	=85	=85	=85
2r	4e-	4gg	4bb-
.	8B-	4r	4r
.	8G	.	.
=86	=86	=86	=86
2r	2E-	4c#	4bb-
.	.	4g	8gg
.	.	.	8cc#
=87	=87	=87	=87
4D	4D	4f#	4dd
8AA	4r	4r	4r
8FF#	.	.	.
=88	=88	=88	=88
2EE-	4.G	4gg	4ccc
.	.	8ee-	8ddd
.	16A	8cc	8eee-
.	16B-	.	.
=89	=89	=89	=89
2DD	2c	2a	4gg
.	.	.	4ff#
=90	=90	=90	=90
2EE-	4.G	4gg	8ccc
.	.	.	8ccc
.	.	8ee-	8ddd
.	16A	8cc	8eee-
.	16B-	.	.
=91	=91	=91	=91
2DD	2c	2a	4gg
.	.	.	4ff#
=92	=92	=92	=92
2e-	2g	[2cc	16ccc
.	.	.	16ddd
.	.	.	16eee-
.	.	.	16ddd
.	.	.	16ccc
.	.	.	16bb-
.	.	.	16aa
.	.	.	16gg
=93	=93	=93	=93
[2d	[2a	2cc_	2gg
=94	=94	=94	=94
2d_	2a]	2cc]	2ff#
=95	=95	=95	=95
4d]	[2a-	[2b	[2ff
4r	.	.	.
=96	=96	=96	=96
4d	2a-_	2b_	2ff_
8e-	.	.	.
8f	.	.	.
=97	=97	=97	=97
4c	2a-_	2b_	2ff_
4B	.	.	.
=98	=98	=98	=98
8B	2a-_	2b_	2ff_
8B	.	.	.
8c	.	.	.
8d	.	.	.
=99	=99	=99	=99
[2G	2a-]	4b]	2ff]
.	.	8cc	.
.	.	8dd	.
=100	=100	=100	=100
2G_	4g	4cc	4ee-
.	4f	4b	4dd
=101	=101	=101	=101
2G_	[2e-	4cc	[2cc
.	.	8g	.
.	.	8e-	.
=102	=102	=102	=102
2G]	2e-]	2c	8cc]
.	.	.	8cc
.	.	.	8dd
.	.	.	8ee-
=103	=103	=103	=103
[2F	[2c	[2e-	4b-
.	.	.	4a
=104	=104	=104	=104
2F_	2c_	2e-_	8cc
.	.	.	8cc
.	.	.	8dd
.	.	.	8ee-
=105	=105	=105	=105
2F_	2c_	2e-_	4b-
.	.	.	4a
=106	=106	=106	=106
2F_	2c_	2e-_	16ee-
.	.	.	16ff
.	.	.	16gg
.	.	.	16ff
.	.	.	16ee-
.	.	.	16dd
.	.	.	16cc
.	.	.	16b-
=107	=107	=107	=107
2F]	2c]	2e-]	2b-
=108	=108	=108	=108
2F	2c	2e-	32dd
.	.	.	32ee-
.	.	.	32dd
.	.	.	32ee-
.	.	.	32dd
.	.	.	32ee-
.	.	.	32dd
.	.	.	32ee-
.	.	.	32dd
.	.	.	32ee-
.	.	.	32ff
.	.	.	32ee-
.	.	.	16ee-
.	.	.	16ee
=109	=109	=109	=109
4BB-	4B-	4d	4ff
4r	4r	4r	8dd
.	.	.	8b-
=110	=110	=110	=110
2r	4r	4r	8f
.	.	.	8b-
.	4g	[4b-	8b-
.	.	.	8b-
=111	=111	=111	=111
2r	4e-	4b-]	8cc
.	.	.	8cc
.	4f	4a	8cc
.	.	.	8cc
=112	=112	=112	=112
8r	4B-	8b-	4dd
8B-	.	8dd	.
8B-	4r	8dd	4bb-
8B-	.	8dd	.
=113	=113	=113	=113
8c	2r	8ee-	4bb-
8c	.	8ee-	.
8c	.	8ee-	4aa
8c	.	8ee-	.
=114	=114	=114	=114
16d	2r	[2ff	2aa-
16e-	.	.	.
16d	.	.	.
16c	.	.	.
16B-	.	.	.
16c	.	.	.
16d	.	.	.
16B-	.	.	.
=115	=115	=115	=115
4e-	8r	4ff]	8gg
.	8e-	.	8gg
4r	8e-	[4ee-	8gg
.	8e-	.	8gg
=116	=116	=116	=116
2r	8f	4ee-]	8aa-
.	8f	.	8aa-
.	8f	4dd	8aa-
.	8f	.	8aa-
=117	=117	=117	=117
2r	16g	2dd-	[2bb-
.	16a-	.	.
.	16g	.	.
.	16f	.	.
.	16e-	.	.
.	16f	.	.
.	16g	.	.
.	16e-	.	.
=118	=118	=118	=118
16AA-	4a-	2cc	4bb-]
16BB-	.	.	.
16AA-	.	.	.
16GG	.	.	.
16FF	4r	.	4aa-
16GG	.	.	.
16FF	.	.	.
16EE-	.	.	.
=119	=119	=119	=119
8DD	8r	[2b-	[2aa-
8FF	8f	.	.
8BB-	8d	.	.
8D	8B-	.	.
=120	=120	=120	=120
4E-	16e-	2b-]	4aa-]
.	16f	.	.
.	16g	.	.
.	16f	.	.
4r	16e-	.	4gg
.	16f	.	.
.	16e-	.	.
.	16d	.	.
=121	=121	=121	=121
2r	8c	[2a-	[2gg
.	8e-	.	.
.	8a-	.	.
.	8cc	.	.
=122	=122	=122	=122
16D	4d	2a-]	4gg]
16E-	.	.	.
16F	.	.	.
16E-	.	.	.
16D	4r	.	4ff
16E-	.	.	.
16D	.	.	.
16C	.	.	.
=123	=123	=123	=123
8BB	2r	[2g	16ff
.	.	.	16ee-
8D	.	.	16dd
.	.	.	16cc
8G	.	.	16b
.	.	.	16a-
8B	.	.	16g
.	.	.	16f
=124	=124	=124	=124
4c	4r	8g]	4e-
.	.	8cc	.
4a-	[4cc	8cc	4r
.	.	8cc	.
=125	=125	=125	=125
4f#	4cc]	8dd	2r
.	.	8dd	.
4g	4b	8dd	.
.	.	8dd	.
=126	=126	=126	=126
8CC	[2cc	16ee-	2r
.	.	16ff	.
8c	.	16ee-	.
.	.	16dd	.
8c	.	16cc	.
.	.	16dd	.
8c	.	16ee-	.
.	.	16cc	.
=127	=127	=127	=127
8d	4cc]	16ff	2r
.	.	16gg	.
8d	.	16ff	.
.	.	16ee-	.
8d	4b	16dd	.
.	.	16ee-	.
8d	.	16ff	.
.	.	16dd	.
=128	=128	=128	=128
16e	2b-	2gg	2r
16f	.	.	.
16e	.	.	.
16d	.	.	.
16c	.	.	.
16d	.	.	.
16e	.	.	.
16c	.	.	.
=129	=129	=129	=129
4f	4a-	4aa-	4ccc
4r	4r	4r	8aa-
.	.	.	8ff
=130	=130	=130	=130
2r	4b-	4dd-	4ee
.	8g	8b-	4r
.	8e	8g	.
=131	=131	=131	=131
2r	4f	4a-	4ccc
.	4r	4r	8aa-
.	.	.	8ff
=132	=132	=132	=132
2r	4a-	4cc-	4dd
.	8f	8a-	4r
.	8d	8f	.
=133	=133	=133	=133
4EE-	4e-	4g	4bb-
8GG	4r	4r	8gg
8BB-	.	.	8ee-
=134	=134	=134	=134
8E-	4r	4r	8b-
16G	.	.	8ee-
16F	.	.	.
16E-	4g	4e-	8ee-
16D	.	.	.
16C	.	.	8ee-
16BB-	.	.	.
=135	=135	=135	=135
8AA-	4cc	4e-	8ff
16BB-	.	.	8ff
16C	.	.	.
16BB-	8a-	4d	8ff
16AA-	.	.	.
16GG	8d	.	8ff
16FF	.	.	.
=136	=136	=136	=136
4EE-	16e-	8e-	8gg
.	16b-	.	.
.	16cc	8e-	8gg
.	16b-	.	.
4r	16ee-	8e-	8gg
.	16b-	.	.
.	16cc	8e-	8gg
.	16b-	.	.
=137	=137	=137	=137
2r	16f	8f	8aa-
.	16b-	.	.
.	16cc	8f	8aa-
.	16b-	.	.
.	16dd	8f	8aa-
.	16b-	.	.
.	16cc	8f	8aa-
.	16b-	.	.
=138	=138	=138	=138
16GG	8e-	4g	4bb-
16E-	.	.	.
16D	8G	.	.
16E-	.	.	.
16B-	8G	4r	8gg
16E-	.	.	.
16D	8G	.	8ee-
16E-	.	.	.
=139	=139	=139	=139
16AA-	8r	4ee-	4cc
16E-	.	.	.
16D	8A-	.	.
16E-	.	.	.
16c	8A-	8cc	4r
16E-	.	.	.
16D	8A-	8a-	.
16E-	.	.	.
=140	=140	=140	=140
16AA	8r	4f	4ccc
16F	.	.	.
16E	8A	.	.
16F	.	.	.
16c	8A	4r	8aa
16F	.	.	.
16E	8A	.	8ff
16F	.	.	.
=141	=141	=141	=141
16BB-	8r	4ff	4dd
16F	.	.	.
16E	8B-	.	.
16F	.	.	.
16d	8B-	8dd	4r
16F	.	.	.
16E	8B-	8b-	.
16F	.	.	.
=142	=142	=142	=142
16BB	8r	4g	4ddd
16G	.	.	.
16F#	8B	.	.
16G	.	.	.
16d	8B	4r	8bb
16G	.	.	.
16F#	8B	.	8gg
16G	.	.	.
=143	=143	=143	=143
16C	8r	4gg	4ee-
16G	.	.	.
16F#	8c	.	.
16G	.	.	.
16e-	8c	8ee-	4r
16G	.	.	.
16F#	8c	8cc	.
16G	.	.	.
=144	=144	=144	=144
8C	8e-	8a-	4eee-
8C	4e-	4a-	.
8C	.	.	8ccc
8C	[8e-	[8a-	8aa-
=145	=145	=145	=145
8C	8e-]	8a-]	8ee-
8C	4e-	4a-	8ccc
8C	.	.	8aa-
8C	8e-	8a-	8gg
=146	=146	=146	=146
8C	8f#	8a 8e-	8ff#
8C	4f#	4e- 4a	8eee-
8C	.	.	8ccc
8C	[8f#	[8a [8e-	8aa
=147	=147	=147	=147
8C	8f#]	8a] 8e-]	8ff#
8C	4f#	4e- 4a	8ee-
8C	.	.	8cc
8C	8f#	8e- 8a	8a
=148	=148	=148	=148
8BB-	8g	8g	8g
8BB-	4d	4g	8ddd
8BB-	.	.	8bb-
8BB-	[8d	[8g	8gg
=149	=149	=149	=149
8BB-	8d]	8g]	8dd
8BB-	4d	4g	8b-
8BB-	.	.	8g
8BB-	8d	8g	8f
=150	=150	=150	=150
8BB-	8g	8d- 8e	8e
8BB-	4g	4d- 4e	8ddd-
8BB-	.	.	8bb-
8BB-	[8g	[8e [8d-	8gg
=151	=151	=151	=151
8BB-	8g]	8e] 8d-]	8ee
8BB-	4g	4e 4d-	8dd-
8BB-	.	.	8b-
8BB-	8g	8d- 8e	8g
=152	=152	=152	=152
8AA	8f	8f 8c	8f
8AA	4f	4f 4c	8ccc
8AA	.	.	8aa
8AA	8f	[8f [8c	8ff
=153	=153	=153	=153
8AA	8ee-	8f] 8c]	8ee-
8AA	4ee-	4f 4c	8ccc
8AA	.	.	8aa
8AA	8a	8c 8f	8ee-
=154	=154	=154	=154
8BB-	8b-	8f 8d	8dd
8BB-	4b-	4f 4d	8bb-
8BB-	.	.	8ff
8BB-	8f	8f 8d	8dd
=155	=155	=155	=155
8GG	8e	8b-	8b-
8GG	4e	4b-	8bb-
8GG	.	.	8gg
8GG	8g	8b-	8ee
=156	=156	=156	=156
4FF	8c	8a	4ff
.	8c	8a	.
4r	8c	8a	8cc
.	8c	8a	8a
=157	=157	=157	=157
2r	8d	8b-	4ff
.	8d	8b-	.
.	8d	8b-	8dd
.	8d	8b-	8b-
=158	=158	=158	=158
4FF	8e-	8cc	4ff
.	8e-	8cc	.
4r	8e-	8cc	8ee-
.	16f	16dd	8cc
.	16e-	16cc	.
=159	=159	=159	=159
2r	8d	8b-	4ff
.	8d	8b-	.
.	8d	8b-	8dd
.	16e-	16cc	8b-
.	16d	16b-	.
=160	=160	=160	=160
4FF	8c	8a	4ff
.	8c	8a	.
4r	8c	8a	8cc
.	8c	8a	8a
=161	=161	=161	=161
2r	8d	8b-	4ff
.	8d	8b-	.
.	8d	8b-	8dd
.	8d	8b-	8b-
=162	=162	=162	=162
4AA	4e-	4cc	4.ff
4r	4r	4r	.
.	.	.	8ff
=163	=163	=163	=163
2r	2r	2r	8ee
.	.	.	8ff
.	.	.	8gg
.	.	.	8ff
=164	=164	=164	=164
4BB-	8r	8r	4ff
.	8D	8B-	.
4r	8B-	8d	8dd
.	8d	8f	8b-
=165	=165	=165	=165
4BB-	8r	8r	8f
.	8D	8B-	8b-
4r	8B-	8d	8b-
.	8d	8f	8b-
=166	=166	=166	=166
4F	8r	8r	8cc
.	8A	8c	8cc
4r	8c	8e-	8cc
.	8e-	8a	8cc
=167	=167	=167	=167
4BB-	8r	8r	16dd
.	.	.	16ee-
.	8B-	8d	16dd
.	.	.	16cc
4r	8d	8f	16b-
.	.	.	16cc
.	8B-	8d	16dd
.	.	.	16ee-
=168	=168	=168	=168
4BB-	8r	8r	4ff
.	8D	8B-	.
4r	8B-	8d	8dd
.	8d	8f	8b-
=169	=169	=169	=169
4B-	8r	8r	8f
.	8D	8B-	8b-
4r	8B-	8d	8b-
.	8d	8f	8b-
=170	=170	=170	=170
4F	8r	8r	8cc
.	8A	8c	8cc
4r	8c	8e-	16cc
.	.	.	16ee-
.	8e-	8a	16dd
.	.	.	16cc
=171	=171	=171	=171
4BB-	4d	8b-	4b-
.	.	8f	.
4r	4r	8b-	4r
.	.	8dd	.
=172	=172	=172	=172
8r	8r	4ff	2r
8BB-	8D	.	.
8D	8F	8dd	.
8F	8B-	8b-	.
=173	=173	=173	=173
4B-	2d	8f	8r
.	.	8b-	8bb-
4G	.	8b-	8bb-
.	.	8b-	8bb-
=174	=174	=174	=174
2F	2e-	8cc	16bb-
.	.	.	16ccc
.	.	8cc	16bb-
.	.	.	16ccc
.	.	8cc	8aa
.	.	8cc	8ff
=175	=175	=175	=175
4BB-	4d	16dd	4ddd
.	.	16ee-	.
.	.	16dd	.
.	.	16cc	.
4r	4r	16b-	4r
.	.	16cc	.
.	.	16dd	.
.	.	16ee-	.
=176	=176	=176	=176
8r	8r	4ff	2r
8BB-	8D	.	.
8D	8F	8dd	.
8F	8B-	8b-	.
=177	=177	=177	=177
4B-	2d	8f	8r
.	.	8b-	8bb-
4G	.	8b-	8bb-
.	.	8b-	8bb-
=178	=178	=178	=178
2F	2e-	8cc	16bb-
.	.	.	16ccc
.	.	8cc	16bb-
.	.	.	16ccc
.	.	16cc	8aa
.	.	16ee-	.
.	.	16dd	8ff
.	.	16cc	.
=179	=179	=179	=179
4BB-	4d	4b-	4bb-
4r	4r	4r	4r
=180	=180	=180	=180
2r	2f	2a 2e-	8cc
.	.	.	8cc
.	.	.	16cc
.	.	.	16ee-
.	.	.	16dd
.	.	.	16cc
=181	=181	=181	=181
4f	4d	4b- 4d	4b-
8d	4r	4r	4r
8B-	.	.	.
=182	=182	=182	=182
2G	2r	16b-	8ee
.	.	16cc	.
.	.	16b-	8ee
.	.	16cc	.
.	.	8b-	16ee
.	.	.	16gg
.	.	8b-	16ff
.	.	.	16ee
=183	=183	=183	=183
4F	2r	4a	4ff
8C	.	4r	4r
8AA	.	.	.
=184	=184	=184	=184
2GG-	4.B-	4b-	4ee-
.	.	8g-	8ff
.	16c	8e-	8gg-
.	16d-	.	.
=185	=185	=185	=185
2FF	2e-	2c	4b-
.	.	.	4a
=186	=186	=186	=186
2GG-	4.B-	4b-	8ee-
.	.	.	8ee-
.	.	8g-	8ff
.	16c	8e-	8gg-
.	16d-	.	.
=187	=187	=187	=187
2FF	2e-	2c	4b-
.	.	.	4a
=188	=188	=188	=188
2GG-	4.B-	8b-	16ee-
.	.	.	16ff
.	.	8b-	16gg-
.	.	.	16ff
.	.	8g-	16ee-
.	.	.	16dd-
.	16c	8e-	16cc
.	16d-	.	16b-
=189	=189	=189	=189
2FF	[2e-	[2c	2b-
=190	=190	=190	=190
[2FF	2e-]	2c]	16a
.	.	.	16b-
.	.	.	16a
.	.	.	16b-
.	.	.	16cc
.	.	.	16dd
.	.	.	16cc
.	.	.	16dd
=191	=191	=191	=191
8FF]	8c	8a 8e-	8ee-
4FF	4c	4a 4e-	16ee-
.	.	.	16dd
.	.	.	8cc
[8FF	[8c	[8e- [8a	16cc
.	.	.	16b-
=192	=192	=192	=192
8FF]	8c]	8e-] 8a]	8a
4FF	4c	4a 4e-	16cc
.	.	.	16b-
.	.	.	16a
.	.	.	16g
8FF	8c	8e- 8a	16f
.	.	.	16e-
=193	=193	=193	=193
8BB-	4d	4ff	4d
8D	.	.	.
8B-	8r	8dd	4r
8D	[8f	8b-	.
=194	=194	=194	=194
8r	8f]	4g	4gg
8E-	8e-	.	.
8c	8r	4r	8ee-
8E-	[8g	.	8cc
=195	=195	=195	=195
8r	8g]	4aa	4a
8F	8f	.	.
8d	8r	8ff	4r
8F	[8a	8dd	.
=196	=196	=196	=196
8r	8a]	4b-	4bb-
8G	8g	.	.
8e-	8r	4r	8gg
8G	[8b-	.	8ee-
=197	=197	=197	=197
8r	8b-]	8r	4ccc
8A	8a	8ee-	.
8f	8r	8cc	8aa
8A	8cc	8f	8ee-
=198	=198	=198	=198
4B-	4f	4b-	16dd
.	.	.	16ff
.	.	.	16ee
.	.	.	16ff
4r	4r	4r	16bb-
.	.	.	16ff
.	.	.	16ee
.	.	.	16ff
=199	=199	=199	=199
4B-	4b- 4d	16b-	16ff
.	.	16dd	16bb-
.	.	16cc#	16aa
.	.	16dd	16bb-
4r	4r	16ff	16ddd
.	.	16dd	16bb-
.	.	16cc#	16aa
.	.	16dd	16bb-
=200	=200	=200	=200
4B-	4d 4b-	16dd	16bb-
.	.	16bb-	16ddd
.	.	16aa	16ccc#
.	.	16bb-	16ddd
4r	4r	16ddd	16fff
.	.	16bb-	16ddd
.	.	16aa	16ccc#
.	.	16bb-	16ddd
=201	=201	=201	=201
4B-	4b- 4d	16ddd	16fff
.	.	16bb-	16ddd
.	.	16aa	16ccc#
.	.	16bb-	16ddd
4r	4r	16ddd	16fff
.	.	16bb-	16ddd
.	.	16aa	16ccc#
.	.	16bb-	16ddd
=202	=202	=202	=202
4B-	4d 4b-	4ddd	4fff
4r	4r	8r	8r
.	.	16bb-	16ddd
.	.	16ccc	16eee-
=203	=203	=203	=203
2r	2r	8ddd	8fff
.	.	16bb-	16ddd
.	.	16ccc	16eee-
.	.	8ddd	8fff
.	.	16bb-	16ddd
.	.	16ccc	16eee-
=204	=204	=204	=204
2r	2r	4ddd	4fff
.	.	4r	4r
=205	=205	=205	=205
2DD	2F	2B-	2A-
=206	=206	=206	=206
8EE-	8G	8B-	8G
8EE-	4G	4B-	8B-
8EE-	.	.	8e-
8EE-	[8G	[8B-	8g
=207	=207	=207	=207
8EE-	8G]	8B-]	8b-
8EE-	4G	4B-	8ee-
8EE-	.	.	8gg
8EE-	8G	8B-	8bb-
=208	=208	=208	=208
8EE	8d-	8g 8B-	8d-
8EE	4d-	4B- 4g	8e
8EE	.	.	8g
8EE	[8d-	[8g [8B-	8b-
=209	=209	=209	=209
8EE	8d-]	8g] 8B-]	8dd-
8EE	4d-	4B- 4g	8ee
8EE	.	.	8gg
8EE	8d-	8B- 8g	8bb-
=210	=210	=210	=210
8FF	8d	8d	8f
8FF	4d	4b-	8b-
8FF	.	.	8dd
8FF	[8d	[8b-	8ff
=211	=211	=211	=211
8FF	8d]	8b-]	8bb-
8FF	4d	4b-	8ddd
8FF	.	.	8fff
8FF	[8b-	8b-	8bb-
=212	=212	=212	=212
8FF	8b-]	4ee-	[2ccc
8FF	4b-	.	.
8FF	.	8cc	.
8FF	8b-	8f	.
=213	=213	=213	=213
8FF	8a	4ee-	2ccc]
8FF	4a	.	.
8FF	.	8cc	.
8FF	8a	8f	.
=214	=214	=214	=214
8GG	8g	4e	4bb-
8GG	4g	.	.
8GG	.	8g	8gg
8GG	8g	8b-	8ee
=215	=215	=215	=215
8AA	8f	4e-	4ccc
8AA	4f	.	.
8AA	.	8a	8aa
8AA	8f	8cc	8ee-
=216	=216	=216	=216
4BB-	8f	8dd	8bb-
.	8r	8r	16ff
.	.	.	16dd
4E-	8e-	8ee-	8gg
.	8r	8r	16ee-
.	.	.	16cc
=217	=217	=217	=217
4F	8f	8dd	8ff
.	8r	8r	16dd
.	.	.	16b-
4FF	8f	8cc	8ee-
.	8r	8r	16cc
.	.	.	16a
=218	=218	=218	=218
4BB-	4f	8b-	4b-
.	.	16f	.
.	.	16d	.
4r	8d	8b-	4r
.	8B-	16f	.
.	.	16d	.
=219	=219	=219	=219
4BB-	4A	8a	4ee-
.	.	16f	.
.	.	16e-	.
4r	4r	8a	8cc
.	.	16f	8a
.	.	16e-	.
=220	=220	=220	=220
4BB-	8d	8b-	4b-
.	8f	16f	.
.	.	16d	.
4r	8d	8b-	4r
.	8B-	16f	.
.	.	16d	.
=221	=221	=221	=221
4BB-	4c	8a	4ee-
.	.	16f	.
.	.	16e-	.
4r	8e-	8a	8cc
.	8f	16f	8a
.	.	16e-	.
=222	=222	=222	=222
4BB-	4d	4d	4b-
4r	4r	4r	4r
=223	=223	=223	=223
2r	2r	2r	2r
=224	=224	=224	=224
2r	2r	2r	2r
=225	=225	=225	=225
2r	2r	2r	8r
.	.	.	8f
.	.	.	8b-
.	.	.	8dd
=226	=226	=226	=226
4BB-	8r	8r	4ff
.	8D	8B-	.
4r	8B-	8d	8dd
.	8d	8f	8b-
=227	=227	=227	=227
4BB-	8r	8r	8f
.	8D	8B-	8b-
4r	8B-	8d	8b-
.	8d	8f	8b-
=228	=228	=228	=228
4F	8r	8r	8cc
.	8A	8c	8cc
4r	8c	8e-	8cc
.	8e-	8a	8cc
=229	=229	=229	=229
4BB-	8r	8r	16dd
.	.	.	16ee-
.	8B-	8d	16dd
.	.	.	16cc
4r	8d	8f	16b-
.	.	.	16cc
.	8B-	8d	16dd
.	.	.	16ee-
=230	=230	=230	=230
4BB-	8r	8r	4ff
.	8D	8B-	.
4r	8B-	8d	8dd
.	8d	8f	8b-
=231	=231	=231	=231
4B-	8r	8r	8f
.	8D	8B-	8b-
4r	8B-	8d	8b-
.	8d	8f	8b-
=232	=232	=232	=232
4F	8r	8r	8cc
.	8A	8c	8cc
4r	8c	8e-	16cc
.	.	.	16ee-
.	8e-	8f	16dd
.	.	.	16cc
=233	=233	=233	=233
4BB-	4d	4d	4b-
4r	4r	4r	4r
=234	=234	=234	=234
4F	4A	8cc	4eee-
.	.	8cc	.
4r	8c	16cc	8ccc
.	.	16ee-	.
.	8e-	16dd	8aa
.	.	16cc	.
=235	=235	=235	=235
4BB-	16d	8b-	4fff
.	16e-	.	.
.	16d	8d	.
.	16c	.	.
4r	8B-	8f	8ddd
.	8r	8b-	8bb-
=236	=236	=236	=236
4F	4A	8cc	4eee-
.	.	8cc	.
4r	8c	16cc	8ccc
.	.	16ee-	.
.	8e-	16dd	8aa
.	.	16cc	.
=237	=237	=237	=237
4BB-	4d	4b-	4bb-
4r	4r	4r	4r
=238	=238	=238	=238
4F	4A	4ee-	8cc
.	.	.	8cc
4r	8c	8cc	16cc
.	.	.	16ee-
.	8e-	8a	16dd
.	.	.	16cc
=239	=239	=239	=239
4BB-	16d	4ff	8b-
.	16e-	.	.
.	16d	.	8d
.	16c	.	.
4r	8B-	8dd	8f
.	8r	8b-	8b-
=240	=240	=240	=240
4F	4A	4ee-	8cc
.	.	.	8cc
4r	8c	8cc	16cc
.	.	.	16ee-
.	8e-	8a	16dd
.	.	.	16cc
=241	=241	=241	=241
4BB-	4d	4b-	4b-
4r	4r	4r	4r
=242	=242	=242	=242
4F	8c	4A	4ee-
.	8c	.	.
4r	16c	8c	8cc
.	16e-	.	.
.	16d	8e-	8a
.	16c	.	.
=243	=243	=243	=243
4BB-	4B-	4d	4b-
4r	4r	4r	4r
=244	=244	=244	=244
16FF	4e- 4a 4c	4ee- 4f 4A	4aa 4cc 4f
16GG	.	.	.
16AA	.	.	.
16BB-	.	.	.
16C	4r	4r	4r
16D	.	.	.
16E-	.	.	.
16F	.	.	.
=245	=245	=245	=245
4BB-	4f 4b- 4B-	4dd 4f 4B-	4bb- 4b- 4d
4r	4r	4r	4r
==	==	==	==
*-	*-	*-	*-
!!!RWG1: This file contains only pitch and duration data.
!!!RWG2: Transposing instruments are not transposed.
!!!RWG3: Spines may have incompatible meters.
!!!RWG4: Durations of rests and tied notes may be interpreted.
!!!RWG: Key is interpreted using the Humdrum key tool.
!!!GTL: 6 Quartetti ("Prussian")
!!!AFT: stage1
!!!END: 1997/04/15
!!!KEY: 3843015844
!!!EMD: Converted from MuseData to Humdrum Dec 16, 2000, by Andreas Kornstaedt using muse2kern.
!!!EMD: Manual editing by Craig Sapp, Nov 2001
